_inc/images/buttons/dualsense/select.svg

<?xml version="1.0" encoding="UTF-8" standalone="no"?>
<svg
   id="Layer_1"
   data-name="Layer 1"
   viewBox="0 0 5.2003384 9.9999866"
   version="1.1"
   sodipodi:docname="select.svg"
   width="5.2003384"
   height="9.9999866"
   inkscape:version="1.3.2 (091e20e, 2023-11-25, custom)"
   xmlns:inkscape="http://www.inkscape.org/namespaces/inkscape"
   xmlns:sodipodi="http://sodipodi.sourceforge.net/DTD/sodipodi-0.dtd"
   xmlns="http://www.w3.org/2000/svg"
   xmlns:svg="http://www.w3.org/2000/svg">
  <sodipodi:namedview
     id="namedview3"
     pagecolor="#505050"
     bordercolor="#eeeeee"
     borderopacity="1"
     inkscape:showpageshadow="0"
     inkscape:pageopacity="0"
     inkscape:pagecheckerboard="0"
     inkscape:deskcolor="#505050"
     inkscape:zoom="35.53125"
     inkscape:cx="2.9973615"
     inkscape:cy="6.937555"
     inkscape:window-width="2560"
     inkscape:window-height="1351"
     inkscape:window-x="-9"
     inkscape:window-y="-9"
     inkscape:window-maximized="1"
     inkscape:current-layer="Layer_1" />
  <defs
     id="defs1">
    <style
       id="style1">.cls-1{fill:none;stroke:#fff;stroke-miterlimit:10;stroke-width:20px;}.cls-2{fill:#fff;}</style>
  </defs>
  <path
     style="color:#000000;fill:#ffffff;stroke-width:0.0245166;stroke-miterlimit:10;-inkscape-stroke:none"
     d="M 2.47326,0 1.88548,0.02672 1.97318,1.95889 2.561,1.93217 Z"
     id="line1" />
  <path
     style="color:#000000;fill:#ffffff;stroke-width:0.0245166;stroke-miterlimit:10;-inkscape-stroke:none"
     d="M 0.46352,0.82533 0,1.187764 0.96031,2.416038 1.42383,2.053604 Z"
     id="line2" />
  <path
     style="color:#000000;fill:#ffffff;stroke-width:0.0245166;stroke-miterlimit:10;-inkscape-stroke:none"
     d="M 3.8313,0.677416 3.02867,1.985848 3.5302,2.293551 4.33288,0.985071 Z"
     id="line3" />
  <path
     class="cls-2"
     d="m 5.19956,8.091355 v -0.01765 l -0.003,-0.01765 C 5.12986,7.624071 4.90408,6.589714 4.68564,5.589436 4.52726,4.865704 4.37697,4.182916 4.31936,3.860767 l -0.003,-0.01839 -0.006,-0.01814 C 3.94531,2.679064 2.83348,2.365497 1.92416,2.647438 1.45344,2.794538 1.05995,3.08457 0.8165,3.466784 0.53652,3.905877 0.47473,4.424894 0.63802,4.967202 0.69392,5.156961 0.85621,5.925803 1.01337,6.669638 1.2654,7.862127 1.43603,8.658918 1.50811,8.858974 l 0.003,0.0093 c 0.17652,0.441299 0.49352,0.775461 0.91717,0.964975 a 1.9735894,1.9735894 0 0 0 0.8039,0.166713 2.1346637,2.1346637 0 0 0 0.43713,-0.04536 C 4.45581,9.790095 5.23495,9.150211 5.19915,8.091338 Z"
     id="path3-8"
     style="fill:#ffffff;stroke-width:0.0245166" />
</svg>

<svg xmlns="http://www.w3.org/2000/svg" width="5.2" height="10" data-name="Layer 1" viewBox="0 0 5.2 10"><path d="m2.473 0-.588.027.088 1.932.588-.027ZM.464.825 0 1.188l.96 1.228.464-.362ZM3.831.677 3.03 1.986l.501.308.803-1.309Z" style="color:#000;fill:#fff;stroke-width:.0245166;stroke-miterlimit:10;-inkscape-stroke:none"/><path d="M5.2 8.091v-.017l-.003-.018c-.067-.432-.293-1.466-.511-2.467a65 65 0 0 1-.367-1.728l-.003-.019-.006-.018C3.945 2.68 2.833 2.365 1.924 2.647c-.47.148-.864.438-1.107.82-.28.439-.342.958-.179 1.5.056.19.218.959.375 1.703.252 1.192.423 1.989.495 2.189l.003.01c.177.44.494.775.917.964a2 2 0 0 0 .804.167 2 2 0 0 0 .437-.045C4.456 9.79 5.235 9.15 5.2 8.09Z" style="fill:#fff;stroke-width:.0245166"/></svg>
